icons/circle/48/libreoffice-impress.svg

<svg xmlns="http://www.w3.org/2000/svg" viewBox="0 0 48 48">
 <defs>
  <linearGradient id="linearGradient3764" x1="1" x2="47" gradientUnits="userSpaceOnUse" gradientTransform="matrix(0,-1,1,0,-1.5e-6,47.999998)">
   <stop style="stop-color:#f67c2a;stop-opacity:1"/>
   <stop offset="1" style="stop-color:#f7883d;stop-opacity:1"/>
  </linearGradient>
 </defs>
 <g>
  <path d="m 36.31 5 c 5.859 4.062 9.688 10.831 9.688 18.5 c 0 12.426 -10.07 22.5 -22.5 22.5 c -7.669 0 -14.438 -3.828 -18.5 -9.688 c 1.037 1.822 2.306 3.499 3.781 4.969 c 4.085 3.712 9.514 5.969 15.469 5.969 c 12.703 0 23 -10.298 23 -23 c 0 -5.954 -2.256 -11.384 -5.969 -15.469 c -1.469 -1.475 -3.147 -2.744 -4.969 -3.781 z m 4.969 3.781 c 3.854 4.113 6.219 9.637 6.219 15.719 c 0 12.703 -10.297 23 -23 23 c -6.081 0 -11.606 -2.364 -15.719 -6.219 c 4.16 4.144 9.883 6.719 16.219 6.719 c 12.703 0 23 -10.298 23 -23 c 0 -6.335 -2.575 -12.06 -6.719 -16.219 z" style="opacity:0.05"/>
  <path d="m 41.28 8.781 c 3.712 4.085 5.969 9.514 5.969 15.469 c 0 12.703 -10.297 23 -23 23 c -5.954 0 -11.384 -2.256 -15.469 -5.969 c 4.113 3.854 9.637 6.219 15.719 6.219 c 12.703 0 23 -10.298 23 -23 c 0 -6.081 -2.364 -11.606 -6.219 -15.719 z" style="opacity:0.1"/>
  <path d="m 31.25 2.375 c 8.615 3.154 14.75 11.417 14.75 21.13 c 0 12.426 -10.07 22.5 -22.5 22.5 c -9.708 0 -17.971 -6.135 -21.12 -14.75 a 23 23 0 0 0 44.875 -7 a 23 23 0 0 0 -16 -21.875 z" style="opacity:0.2"/>
 </g>
 <g>
  <path d="m 24 1 c 12.703 0 23 10.297 23 23 c 0 12.703 -10.297 23 -23 23 -12.703 0 -23 -10.297 -23 -23 0 -12.703 10.297 -23 23 -23 z" style="fill:url(#linearGradient3764);fill-opacity:1"/>
 </g>
 <g>
  <g>
   <g transform="translate(1,1)">
    <g style="opacity:0.1">
     <!-- color: #f7883d -->
     <g>
      <path d="m 12.883 13 c -0.488 0 -0.883 0.399 -0.883 0.887 l 0 0.227 c 0 0.489 0.395 0.889 0.883 0.889 l 0.117 0 l 0 19.998 l -0.117 0 c -0.488 0 -0.883 0.399 -0.883 0.887 l 0 0.227 c 0 0.489 0.395 0.889 0.883 0.889 l 24.23 0 c 0.489 0 0.887 -0.401 0.887 -0.889 l 0 -0.227 c 0 -0.489 -0.399 -0.887 -0.887 -0.887 l -0.113 0 l 0 -19.998 l 0.113 0 c 0.489 0 0.887 -0.401 0.887 -0.889 l 0 -0.227 c 0 -0.489 -0.399 -0.887 -0.887 -0.887 l -24.23 0 z" transform="translate(-1,-1)"/>
     </g>
    </g>
   </g>
  </g>
 </g>
 <g>
  <g>
   <!-- color: #f7883d -->
   <g>
    <path d="m 12 13 24 0 0 22 -24 0 m 0 -22" style="fill:#ececec;fill-opacity:1;stroke:none;fill-rule:nonzero"/>
    <path d="m 11.883,12 24.23,0 C 36.601,12 37,12.398 37,12.887 l 0,0.227 c 0,0.488 -0.398,0.887 -0.887,0.887 l -24.23,0 C 11.395,14.001 11,13.603 11,13.114 l 0,-0.227 C 11,12.399 11.395,12 11.883,12 m 0,0" style="fill:#585a61;fill-opacity:1;stroke:none;fill-rule:nonzero"/>
    <path d="m 11.883,34 24.23,0 C 36.601,34 37,34.398 37,34.887 l 0,0.227 c 0,0.488 -0.398,0.887 -0.887,0.887 l -24.23,0 C 11.395,36.001 11,35.603 11,35.114 l 0,-0.227 C 11,34.399 11.395,34 11.883,34 m 0,0" style="fill:#585a61;fill-opacity:1;stroke:none;fill-rule:nonzero"/>
    <path d="m 32 24 c 0 4.418 -3.582 8 -8 8 -4.418 0 -8 -3.582 -8 -8 0 -4.418 3.582 -8 8 -8 4.418 0 8 3.582 8 8 m 0 0" style="fill:#7fb9cf;fill-opacity:1;stroke:none;fill-rule:nonzero"/>
    <path d="m 29.22 17.938 -5.219 6.06 5.652 5.652 c 1.449 -1.449 2.344 -3.445 2.344 -5.652 0 -2.426 -1.082 -4.598 -2.781 -6.06 m 0.004 0" style="fill:#ff7e27;fill-opacity:1;stroke:none;fill-rule:nonzero"/>
    <path d="m 24,16 c -0.887,0 -1.738,0.137 -2.535,0.406 L 24,24.004 29.219,17.944 C 27.821,16.733 25.992,16.003 24,16.003 m 0,0" style="fill:#ffcfa1;fill-opacity:1;stroke:none;fill-rule:nonzero"/>
   </g>
  </g>
 </g>
 <g>
  <path d="m 40.03 7.531 c 3.712 4.084 5.969 9.514 5.969 15.469 0 12.703 -10.297 23 -23 23 c -5.954 0 -11.384 -2.256 -15.469 -5.969 4.178 4.291 10.01 6.969 16.469 6.969 c 12.703 0 23 -10.298 23 -23 0 -6.462 -2.677 -12.291 -6.969 -16.469 z" style="opacity:0.1"/>
 </g>
</svg>

<svg xmlns="http://www.w3.org/2000/svg" viewBox="0 0 48 48">
  <defs>
    <linearGradient id="a" x1="1" x2="47" gradientUnits="userSpaceOnUse" gradientTransform="rotate(-90 24 24)">
      <stop stop-color="#f67c2a"/>
      <stop offset="1" stop-color="#f7883d"/>
    </linearGradient>
  </defs>
  <path d="M36.31 5c5.859 4.062 9.688 10.831 9.688 18.5 0 12.426-10.07 22.5-22.5 22.5-7.669 0-14.438-3.828-18.5-9.688a23.24 23.24 0 0 0 3.781 4.969 22.923 22.923 0 0 0 15.469 5.969c12.703 0 23-10.298 23-23a22.92 22.92 0 0 0-5.969-15.469A23.216 23.216 0 0 0 36.31 5zm4.969 3.781A22.911 22.911 0 0 1 47.498 24.5c0 12.703-10.297 23-23 23a22.909 22.909 0 0 1-15.719-6.219C12.939 45.425 18.662 48 24.998 48c12.703 0 23-10.298 23-23 0-6.335-2.575-12.06-6.719-16.219z" opacity=".05"/>
  <path d="M41.28 8.781a22.923 22.923 0 0 1 5.969 15.469c0 12.703-10.297 23-23 23A22.92 22.92 0 0 1 8.78 41.281 22.911 22.911 0 0 0 24.499 47.5c12.703 0 23-10.298 23-23A22.909 22.909 0 0 0 41.28 8.781z" opacity=".1"/>
  <path d="M31.25 2.375C39.865 5.529 46 13.792 46 23.505c0 12.426-10.07 22.5-22.5 22.5-9.708 0-17.971-6.135-21.12-14.75a23 23 0 0 0 44.875-7 23 23 0 0 0-16-21.875z" opacity=".2"/>
  <path d="M24 1c12.703 0 23 10.297 23 23S36.703 47 24 47 1 36.703 1 24 11.297 1 24 1z" fill="url(#a)"/>
  <path d="M12.883 13a.886.886 0 0 0-.883.887v.227c0 .489.395.889.883.889H13v19.998h-.117a.886.886 0 0 0-.883.887v.227c0 .489.395.889.883.889h24.23a.89.89 0 0 0 .887-.889v-.227a.889.889 0 0 0-.887-.887H37V15.003h.113a.89.89 0 0 0 .887-.889v-.227a.889.889 0 0 0-.887-.887h-24.23z" opacity=".1"/>
  <g>
    <path d="M12 13h24v22H12m0-22" fill="#ececec"/>
    <path d="M11.883 12h24.23c.488 0 .887.398.887.887v.227a.889.889 0 0 1-.887.887h-24.23a.885.885 0 0 1-.883-.887v-.227c0-.488.395-.887.883-.887m0 0M11.883 34h24.23c.488 0 .887.398.887.887v.227a.889.889 0 0 1-.887.887h-24.23a.885.885 0 0 1-.883-.887v-.227c0-.488.395-.887.883-.887m0 0" fill="#585a61"/>
    <path d="M32 24a8 8 0 1 1-16 0 8 8 0 0 1 16 0m0 0" fill="#7fb9cf"/>
    <path d="M29.22 17.938l-5.219 6.06 5.652 5.652a7.965 7.965 0 0 0 2.344-5.652 7.977 7.977 0 0 0-2.781-6.06m.004 0" fill="#ff7e27"/>
    <path d="M24 16c-.887 0-1.738.137-2.535.406L24 24.004l5.219-6.06A7.95 7.95 0 0 0 24 16.003m0 0" fill="#ffcfa1"/>
  </g>
  <g>
    <path d="M40.03 7.531A22.922 22.922 0 0 1 45.999 23c0 12.703-10.297 23-23 23A22.92 22.92 0 0 1 7.53 40.031C11.708 44.322 17.54 47 23.999 47c12.703 0 23-10.298 23-23 0-6.462-2.677-12.291-6.969-16.469z" opacity=".1"/>
  </g>
</svg>
